X: 24082
T: Long Island Waltz
R: waltz
M: 3/4
K: Gmajor
G2||B4A2|G4E2|D4E2|G4B2|d4e2|d4B2|A6|A4G2|
B4A2|G4E2|D4E2|G4B2|d4e2|d4B2|A6|A4B2||
d4e2|d2e2f2|g2f2e2|d4BG|B4A2|G4E2|D6|D4B2|
d4e2|d4ef|g2f2e2|d2B2G2|B4A2|G4E2|D6|D6||
B4c2|d4e2|f4g2|e6|b4a2|g4e2|d4B2|A6|
B4c2|d4e2|f4g2|e6|b4a2|g4e2|d4B2|A4G2||
|:BAG4|d4e2|BAG4|A4G2|BAG4|d4e2|BAG4|E4D2:|
|:G4A2|B2d4|g4f2|e2d4|g4f2|e2d4|e2d4|B4A2:|
BAG4|d4e2|BAG4|A4G2|BAG4|d4e2|BAG4|E4D2|
BAG4|d4e2|BAG4|A4G2|BAG4|d4e2|BAG4|E4G2||

